X: 10451
T: WHITE'S HORNPIPE
C:
%R: hornpipe, reel
B: Elias Howe "The Musician's Companion" Part 1 1842 p.45 #1
S: http://imslp.org/wiki/The_Musician's_Companion_(Howe,_Elias)
Z: 2015 John Chambers <jc:trillian.mit.edu>
M: C|
L: 1/8
K: B
% - - - - - - - - - - - - - - - - - - - - - - - - -
f2 |\
bfdB Aceg | fdec cBAG | FDEG FBdf | eFcB AGAF |\
BDFB dBfd | bGcB AcFg | fbdf egce | dcBA B2 :|
|: f2 |\
f=efd bdfd | _edec gBcF | GBed cged | cdcB AFGA |\
BbAa GgFf | EecB AFGA | BFcF dBeg | fdec B2 :|
% - - - - - - - - - - - - - - - - - - - - - - - - -


